build/category/RIPSolid.svg

<svg xmlns="http://www.w3.org/2000/svg" fill="none" viewBox="0 0 24 24" focusable="false"><path d="M0 0H24V24H0z"/><path fill="#74767B" fill-rule="evenodd" d="M12.0001 4C8.1341 4 5.0001 7.13298 5.0001 10.9977L5.0001 18.7004L3.65 18.7004C3.29102 18.7004 3 18.9913 3 19.3502C3 19.7091 3.29102 20 3.65 20L20.35 20C20.709 20 21 19.7091 21 19.3502C21 18.9913 20.709 18.7004 20.35 18.7004L19.0001 18.7004L19.0001 10.9977C19.0001 7.13298 15.8661 4 12.0001 4ZM11.3501 15.004C11.3501 15.3628 11.6411 15.6538 12.0001 15.6538C12.3591 15.6538 12.6501 15.3628 12.6501 15.004L12.6501 11.2978L13.9917 11.2978C14.3507 11.2978 14.6417 11.0068 14.6417 10.648C14.6417 10.2891 14.3507 9.99819 13.9917 9.99819L12.6501 9.99819L12.6501 8.65115C12.6501 8.29228 12.3591 8.00136 12.0001 8.00136C11.6411 8.00136 11.3501 8.29228 11.3501 8.65115L11.3501 9.99819L10.0221 9.99819C9.66309 9.99819 9.37207 10.2891 9.37207 10.648C9.37207 11.0068 9.66309 11.2978 10.0221 11.2978L11.3501 11.2978L11.3501 15.004Z"/></svg>

<svg xmlns="http://www.w3.org/2000/svg" fill="none" viewBox="0 0 24 24" focusable="false"><path fill="#74767B" fill-rule="evenodd" d="M12 4c-3.87 0-7 3.13-7 6.99v7.71H3.64c-.35 0-.64.29-.64.65 0 .35.29.65.64.65h16.71c.35 0 .65-.3.65-.65 0-.36-.3-.65-.65-.65H19v-7.71C19 7.13 15.86 4 12 4m-.65 11c0 .36.29.65.65.65.35 0 .65-.29.65-.65v-3.71h1.34c.36 0 .65-.29.65-.65s-.29-.65-.65-.65h-1.34V8.65c0-.36-.3-.65-.65-.65-.36 0-.65.29-.65.65v1.34h-1.33c-.36 0-.65.29-.65.65s.29.65.65.65h1.33z"/></svg>
